packages/core/src/svgs/gxa.svg

<svg width="24" height="24" viewBox="0 0 24 24" fill="none" xmlns="http://www.w3.org/2000/svg">
<g clip-path="url(#clip0_31_11177)">
<path d="M0 0H24V24H0V0Z" fill="#F0F3FA"/>
<path d="M12.0002 17.1431C10.7818 17.1377 9.60357 16.7063 8.66978 15.9236C7.73598 15.1409 7.10542 14.0561 6.88735 12.8574H5.14307C5.61021 16.2431 8.57592 18.8574 12.0002 18.8574C15.4245 18.8574 18.3902 16.2431 18.8574 12.8574H17.1131C16.895 14.0561 16.2644 15.1409 15.3306 15.9236C14.3968 16.7063 13.2187 17.1377 12.0002 17.1431ZM12.0002 6.85735C13.0671 6.8621 14.107 7.19313 14.9804 7.80599C15.8537 8.41885 16.5186 9.28422 16.8859 10.2859H14.9916C14.6847 9.76125 14.2442 9.32734 13.7149 9.02845C13.1856 8.72955 12.5866 8.57636 11.9788 8.5845C10.1659 8.61878 8.57592 10.1702 8.57164 12.0002C8.59212 12.8994 8.95702 13.7564 9.59101 14.3944C10.225 15.0324 11.0797 15.4027 11.9788 15.4288C12.7465 15.4367 13.4949 15.188 14.1051 14.7222C14.7154 14.2563 15.1526 13.6 15.3474 12.8574H12.2145C12.0619 12.5975 11.9815 12.3016 11.9815 12.0002C11.9815 11.6988 12.0619 11.4029 12.2145 11.1431H18.8574C18.3902 7.75735 15.4245 5.14307 12.0002 5.14307C8.57592 5.14307 5.61021 7.75735 5.14307 11.1431H6.88735C7.31592 8.69164 9.51021 6.84449 12.0002 6.85735Z" fill="url(#paint0_linear_31_11177)"/>
</g>
<defs>
<linearGradient id="paint0_linear_31_11177" x1="5.98307" y1="12.0002" x2="18.0559" y2="12.0002" gradientUnits="userSpaceOnUse">
<stop stop-color="#13EFCF"/>
<stop offset="0.48" stop-color="#A472FF"/>
<stop offset="1" stop-color="#543FFF"/>
</linearGradient>
<clipPath id="clip0_31_11177">
<rect width="24" height="24" fill="white"/>
</clipPath>
</defs>
</svg>

<svg xmlns="http://www.w3.org/2000/svg" width="24" height="24" fill="none" viewBox="0 0 24 24"><g clip-path="url(#a)"><path fill="#F0F3FA" d="M0 0h24v24H0z"/><path fill="url(#b)" d="M12 17.143a5.22 5.22 0 0 1-5.113-4.286H5.143c.467 3.386 3.433 6 6.857 6s6.39-2.614 6.857-6h-1.744A5.22 5.22 0 0 1 12 17.143m0-10.286a5.23 5.23 0 0 1 4.886 3.429h-1.894a3.44 3.44 0 0 0-3.013-1.701C10.166 8.619 8.576 10.17 8.572 12a3.51 3.51 0 0 0 3.407 3.429 3.446 3.446 0 0 0 3.368-2.572h-3.133a1.69 1.69 0 0 1 0-1.714h6.643c-.467-3.386-3.432-6-6.857-6-3.424 0-6.39 2.614-6.857 6h1.744C7.316 8.692 9.51 6.844 12 6.857"/></g><defs><linearGradient id="b" x1="5.983" x2="18.056" y1="12" y2="12" gradientUnits="userSpaceOnUse"><stop stop-color="#13EFCF"/><stop offset=".48" stop-color="#A472FF"/><stop offset="1" stop-color="#543FFF"/></linearGradient><clipPath id="a"><path fill="#fff" d="M0 0h24v24H0z"/></clipPath></defs></svg>
